X: 1
T: Portland Fancy
O: Boston, 1847
B: Elias Howe "Drawing Room Dances" (Boston, 1859)
B: (Howe's was a reprint of Henri Cellarius's "Drawing Room Dances", 1847)
N: Cellarius and Howe published only the first 3 parts; the 4th part is of unknown later origin.
M: 6/8
Z: Transcribed to abc by Mary Lou Knack
R: jig
K: A
   "E7"GF \
| "A"E2A E2A | EAB c2c |\
[1,3 "D"dcd "E7"Bcd | "D"f2e "E"cAF :|\
[2,4 "D"dcd "E7"EFG | "A"AcB A :|
|: ce \
| "A"a2a "E"gag | "D"fdf "A"e2c |\
[1,3 "D"dcd "E7"Bcd | "A"cde "D"f2"E7"e :|\
[2,4 "D"dcd "E7"EFG | "A"AcB A :| % [K:=g]
K: D
|: "A7"F=G \
| "D"ABc d2e | f2g a3 |\
[1,3 "Em"efg "A7"Ade | "D"fed "A7"AFG :|\
[2,4 "Em"efg "A7"ABc | "D"dfe d :|
|: AG \
| "D"F2A F2A | FAd f3 |\
[1,3 "A7"ece gec | "D"dfe "A7"dAG :|\
[2,4 "A7"ece gec | "D"dfe d :|
